X:1
T:Song of the Shepherds
T:Song of the Shepherds
T:Joseph Lincoln Hall
T:Judson Wheeler Van DeVenter, 1900
T:Public Domain Courtesy of the Cyber Hymnal™
T:Public Domain Courtesy of the Cyber Hymnal™
C:Joseph Lincoln Hall
Z:Public Domain
Z:Courtesy of the Cyber Hymnal™
%%score ( 1 2 ) ( 3 4 )
L:1/8
Q:1/4=108
M:4/4
K:A
V:1 treble 
V:2 treble 
V:3 bass 
V:4 bass 
V:1
 E2 c2 B2 A2 | C2 G2 (FE) C2 | D2 F2 c2 B2 | A2 G2 (F2 E2) | E2 c2 B2 A2 | C2 G2 (FE) C2 | %6
w: 1.~By the qui- et|wa- ters flow- * ing,|In the bound- less|pas- tures green, *|Rest we, as the|day- light go- * ing,|
w: 2.~One by one the|stars ap- pear- * ing|In their ne- ver|end- ing flight *|Tell us of the|morn- ing near- * ing,|
 [B,E]3 [B,E] [EG]2 [EB]2 | c2 B2 E4 | [FGd]3 [FGd] [EGc]2 [DGB]2 | F2 A2 (GF) E2 | %10
w: Leaves a gloom up-|on the scene.|Si- lent- ly our|watch- es keep- * ing|
w: And il- lum- in-|ate the night.|As we watch them|come un- ceas- * ing,|
 [FGd]3 [FGd] [EGc]2 [DGB]2 | F2 A2 E4 | [=GAe]3 [GAe] [FAd]2 [EAc]2 | %13
w: Thro’ the shades of|ev- en- tide,|O’er the flocks now|
w: One re- mains to|grace the skies;|So we look with|
 [DFB]2 [CEA]2 (GF) !fermata![=C^DA]2 | [CE]3 [CE] [=C^D]2 [^CE]2 | [Ec]3 [DB] !fermata![CA]4 || %16
w: still and sleep- * ing|Un- dis- turbed and|sa- tis- fied.|
w: faith in- creas- * ing,|For the Star of|Hope to rise.|
"^Refrain"!p! [CE]4 [^B,G]2 [B,F]2 | E8 | [DE]4 [DF]2 [DE]2 | A8- | [CA]8 |] %21
w: Sleep, gent- ly|sleep,|Sleep gent- ly|sleep.||
w: |||||
V:2
 C8 | C8 | D4 F4 | D8 | C8 | C8 | x8 | ^D4 E4 | x8 | C8 | x8 | C8 | x8 | x4 [B,^D]2 x2 | x8 | x8 || %16
 x8 | (C2 D2 D2 C2) | x8 | C4 D2 D2 | x8 |] %21
V:3
 z2 E,2 A,2 E,2 | z2 E,2 A,2 E,2 | z2 A,2 D2 A,2 | B,4 (A,2 G,2) | z2 E,2 A,2 E,2 | %5
w: ~ ~ ~|~ ~ ~|~ ~ ~|~ ~ *|~ ~ ~|
 z2 E,2 A,2 E,2 | z2 G,2 B,2 G,2 | [B,,A,]4 [E,G,]4 | z2 E,2 E,2 E,2 | z2 A,2 A,2 A,2 | %10
w: ~ ~ ~|~ ~ ~|~ ~|~ ~ ~|~ ~ ~|
 z2 E,2 E,2 E,2 | z2 A,2 A,2 A,2 | z2 A,2 D,2 [E,A,]2 | B,,2 C,2 D,2 !fermata![F,A,]2 | %14
w: ~ ~ ~|~ ~ ~|~ ~ ~|~ ~ ~ ~|
 [E,A,]2 [E,A,]2 [F,A,]2 [E,A,]2 | [E,G,]2 [E,G,]2 !fermata![A,,A,]4 || (E,2 F,E,) ^D,2 (F,G,) | %17
w: ~ ~ ~ ~|~ ~ ~|~ * * ~ ~ *|
 (A,2 B,2) B,2 A,2 | (G,2 B,2) [E,A,]2 [E,G,]2 | (A,2 G,2) F,2 =F,2 | [A,,E,]8 |] %21
w: ~ * ~ ~|~ * ~ ~|~ * ~ Sleep,|ly|
V:4
 A,,8 | A,,8 | D,8 | E,8 | A,,8 | A,,8 | B,,8 | x8 | E,,8 | A,,8 | E,,8 | A,,8 | C,4 x4 | x8 | x8 | %15
 x8 || A,,8 | A,,8 | E,4 x4 | A,,8- | x8 |] %21

